X:1
T:[ID 5-1a]
T:[ID 5-1a]
T:Bezeichnung standardisiert: Menuett Men\"uet
T:Urheber unbekannt Datum in der hier transkribierten schriftlichen Quelle: 1773
C:Urheber unbekannt
C:Datum in der hier transkribierten schriftlichen Quelle: 1773
L:1/8
M:3/4
K:D
V:1 treble 
V:1
 a2 f2 dc | d4 GB | A2 G2 FD | E4 D2 | B3 dBd | A2 C2 D2 | FDGEAF | E6 :: ABcdef | .g2 .e2 .c2 | %10
 A2 d2 fg | a2 f2 d2 | B2 c2 d2 | e4 c2 | (3dcB AGFE | D6 :| %16

